X:276
T:Cunamulla Stockmans Jig
Z:Lester Bailey
Z:Jack Campin, http://www.campin.me.uk/
F:Jack Campin's Nine-Note Tunebook
% last edit 22-10-2014
M:6/8
L:1/8
Q:3/8=110
K:D
dcB A2F|GFE FGA|dcB A2F|GFE D3:|
E2E E2F|GAG F2D|E2E E2F|GFE D3:|

